/* XPM */
static char *cad5f282ced24f63aeb7fcee82640668IVccQI4YxOJLqwwh[] = {
/* columns rows colors chars-per-pixel */
"42 42 135 2 ",
"   c black",
".  c #5C0A1B",
"X  c #5D1B23",
"o  c #52212A",
"O  c #652727",
"+  c #6D2220",
"@  c #772623",
"#  c #782B23",
"$  c #112453",
"%  c #152756",
"&  c #182B57",
"*  c #B4250D",
"=  c #C52F00",
"-  c #CD3009",
";  c #E73E07",
":  c #E83A0A",
">  c #DC4703",
",  c #FF5300",
"<  c #FF5600",
"1  c #C66D1B",
"2  c #D77611",
"3  c #E87417",
"4  c #AA5048",
"5  c #679175",
"6  c #79A863",
"7  c #FF931B",
"8  c #93B04E",
"9  c #9BB94E",
"0  c #BFBA5B",
"q  c #FF9A4E",
"w  c #FD9E63",
"e  c #45618A",
"r  c #4A6188",
"t  c #566486",
"y  c #5A6B91",
"u  c #56729D",
"i  c #657697",
"p  c #7689A5",
"a  c #7D8AA3",
"s  c #7F8BA4",
"d  c #7488A8",
"f  c #878DA0",
"g  c #848EA6",
"h  c #8293AE",
"j  c #829AB5",
"k  c #899BB5",
"l  c #8D9FB5",
"z  c #8C9FB8",
"x  c #8FA3BC",
"c  c #95A0B5",
"v  c #9DA3B1",
"b  c #9DA4B4",
"n  c #91A2BA",
"m  c #9BA9BB",
"M  c #B4B4B5",
"N  c #85A0C6",
"B  c #89A3C2",
"V  c #8BA9C8",
"C  c #96ADC6",
"Z  c #9DAEC7",
"A  c #90A9C9",
"S  c #9DAFC9",
"D  c #9EB1CB",
"F  c #A1B1C6",
"G  c #A6B4C5",
"H  c #ACB7C7",
"J  c #A0B3CC",
"K  c #A5B5CD",
"L  c #B0B9CB",
"P  c #A7BBD2",
"I  c #A2BAD6",
"U  c #ADBED1",
"Y  c #BFC0C7",
"T  c #BDC0C9",
"R  c #AFC1D3",
"E  c #AEC1D5",
"W  c #B5C1D0",
"Q  c #B7C6D5",
"!  c #B4C6D9",
"~  c #B3C6DC",
"^  c #B4C8DB",
"/  c #B3C8DD",
"(  c #B4C8DE",
")  c #BACBDC",
"_  c #A6CDEF",
"`  c #B8CDE3",
"'  c #C0C5D0",
"]  c #C3C7D4",
"[  c #C5C9D5",
"{  c #C6D2DF",
"}  c #C8D4DD",
"|  c #C0CFE3",
" . c #C0D3E3",
".. c #C6D6E3",
"X. c #CAD8E3",
"o. c #C9D8E4",
"O. c #CED8E4",
"+. c #D1DBE3",
"@. c #D6DEE3",
"#. c #D3DFE5",
"$. c #DDDFE2",
"%. c #D4DFE9",
"&. c #D0DFF0",
"*. c #D0E2EB",
"=. c #D2E0ED",
"-. c #DFE4EC",
";. c #E0E2E7",
":. c #E7EBEC",
">. c #E7EDEE",
",. c #E9EFEF",
"<. c #F8F3EC",
"1. c #E1E8F0",
"2. c #E3ECF3",
"3. c #E8EDF1",
"4. c #E7F0F1",
"5. c #EAF3F5",
"6. c #EFF3F4",
"7. c #EEF4F7",
"8. c #E5F6FF",
"9. c #EBF5FC",
"0. c #F6F0F0",
"q. c #F2F5F3",
"w. c #F1F5F4",
"e. c #F4F6F7",
"r. c #F7FAF2",
"t. c #F5FAF7",
"y. c #F8FAF2",
"u. c #FAFCF3",
"i. c #FAFBF5",
"p. c #F9FCF4",
"a. c #FDFDF4",
"s. c #F5F8FB",
"d. c #FAFBFA",
"f. c #FFFFF9",
"g. c white",
/* pixels */
"9 9 9 9 9 9 9 6 6 6 6 6 6 6 6 6 6 9 9 9 9 9 9 9 9 9 9 9 9 9 9 9 9 9 9 9 6 6 6 6 6 6 ",
"9 0 0 0 9 9 9 9 9 6 $ $ $ $ $ $ 6 6 6 6 0 0 9 9 9 9 9 9 9 9 0 0 0 9 9 9 9 9 6 6 6 9 ",
"0 0 9 0 0 0 9 9 9 $ g.g.g.g.Y Y $ 9 0 9 0 0 0 9 9 9 9 9 9 0 0 9 0 0 9 9 9 9 9 9 9 9 ",
"9 9 9 9 9 9 9 9 $ $ g.g.g.g.t.Y Y $ 6 6 6 6 0 0 0 0 0 6 9 9 9 9 9 9 9 9 9 9 9 9 9 9 ",
"6 9 9 9 9 9 9 $ g.g.g.g.      g.t.Y $ 6 6 6 6 6 6 6 6 6 6 6 9 9 9 9 9 9 9 9 9 9 9 9 ",
"6 9 9 9 9 9 9 q g.g.g.g.      g.t.Y $ 9 9 9 6 9 6 6 6 6 6 6 9 9 9 9 9 9 9 9 9 9 9 9 ",
"9 9 9 9 9 9 $ q q q g.g.      g.g.g.$ 0 9 9 9 9 9 6 9 6 9 9 9 9 9 9 9 9 9 9 9 5 5 9 ",
"0 0 9 9 5 q q q 7 7 g.g.g.g.g.g.g.g.$ 0 0 0 9 9 9 9 0 0 0 0 0 9 9 5 5 9 5 5 5 0 0 5 ",
"0 9 5 5 q q q < < < w w g.g.g.g.g.g.$ 0 0 0 0 9 9 0 0 0 0 0 9 9 5 0 5 5 5 5 5 0 0 0 ",
"0 5 0 1 q q q < < < w w g.g.g.g.g.g.$ 6 6 0 0 0 0 9 9 9 9 0 5 0 0 0 0 0 0 0 0 0 6 6 ",
"0 0 0 9 . 1 1 < < < < < g.g.g.g.g.g.$ 6 6 6 9 9 9 9 0 0 9 0 0 9 9 9 9 0 9 6 6 6 6 6 ",
"9 0 9 9 9 . . 4 4 < < < g.g.g.g.g.g.$ 9 6 6 9 9 9 9 0 9 9 9 0 9 9 9 9 9 9 6 6 6 6 6 ",
"9 9 9 9 9 9 6 $ $ $ _ _ g.g.g.g.g.g.$ 9 9 9 9 9 9 9 6 6 9 9 9 9 9 9 9 6 6 9 9 9 6 9 ",
"9 9 9 9 9 9 9 6 6 9 $ g.g.g.g.g.g.g.$ 9 9 9 9 9 9 9 6 6 9 9 9 9 9 9 9 9 6 9 9 9 9 9 ",
"6 9 9 0 0 0 0 0 0 0 $ g.g.g.g.g.g.g.$ 9 9 9 6 6 6 6 6 6 6 6 9 9 0 0 0 0 0 0 0 9 9 9 ",
"6 6 9 9 0 0 0 0 0 6 $ g.g.g.g.g.g.g.$ 6 6 6 6 6 6 $ $ 6 6 6 6 9 9 0 0 0 0 6 6 6 6 6 ",
"9 9 0 0 0 0 0 9 9 9 $ g.g.g.g.g.g.g.$ 6 5 5 5 5 $ k k $ 5 9 9 0 0 0 0 0 9 9 9 6 6 6 ",
"9 0 0 0 0 0 0 9 9 9 $ g.g.g.g.g.g.g.$ 5 5 5 $ $ k K k k $ 9 0 0 0 0 0 9 9 9 9 9 6 6 ",
"0 9 9 9 9 9 0 0 0 9 $ g.g.g.g.g.g.g.$ 0 0 $ K K | | K k k $ 9 9 9 9 0 0 0 9 9 9 9 9 ",
"0 0 0 9 9 9 0 9 9 9 $ g.g.g.f.f.g.g.$ 0 $ K | &.&.&.| | k $ $ $ $ $ $ $ $ 0 9 9 9 9 ",
"0 0 0 9 0 0 0 9 9 9 $ g.g.g.t.a.g.g.$ $ $ $ $ $ $ $ $ $ $ $ $ f f ;.,.,.T $ 9 9 9 9 ",
"0 9 0 0 0 0 9 9 9 9 $ g.g.g.i.p.p.g.g.f.f.f.f.f.f.f.f.f.f.M $.g.g.,.,.g.g.g $ 8 9 9 ",
"9 9 9 9 9 9 6 6 6 $ $ g.g.g.i.p.p.e.g.f.f.f.f.f.f.f.f.g.f.g.g.g.g.,.g.g.g.g $ 6 6 6 ",
"9 9 9 9 9 6 6 6 $ G G 7.a.a.u.t.#.9.9.] $ L L y.y.r.y.a.a.} } } t 1.1.v d.d.g $ 6 6 ",
"6 6 6 9 9 9 9 9 $ G 7.7.a.a.u.t.#.9.9.] $ L L y.y.r.y.a.a.} K K t 1.1.v d.d.g $ 9 9 ",
"6 6 9 9 9 9 9 9 $ d.d.d.a.a.r.t.5.' ' $ [ g.g.r.r.p.a.r.r.Q K 1.1.1.c % e.d.g $ 9 5 ",
"9 9 9 9 5 5 0 5 $ 5.5.5.f.f.r.i.g.a.$ p g.f.f.p.p.q.t.g.g.@.U %.%.a & & e.$ $ 0 0 0 ",
"6 9 9 5 5 0 0 0 $ ......w.w.f.a.g.a.$ e 8.6.6.q.q.:.w.O.O.G 2.1.1.a $ i e.$ 0 0 0 0 ",
"0 0 9 9 9 0 6 6 $ ......w.w.f.a.g.W $ e 8.6.6.q.q.:.w.O.O.G 2.1.1.$ i H H $ 0 6 6 6 ",
"9 9 9 9 9 9 9 6 $ ( ( ( { { >.a.g.g.W $ j *.*.*.*.5.=.N N C s $ $ e.e.e.H $ 6 6 6 6 ",
"9 0 0 0 9 9 9 9 $ $ z z ! ! R o.s.g.g.F $ r n l l m k u u $ $ b b e.Z Z $ $ 6 6 6 9 ",
"9 9 9 9 0 0 9 9 9 $ $ z n n ^ / X.w.w.g.$ r r n m m k u $ y -.g.g.` Z $ $ 9 9 9 9 9 ",
"9 9 9 9 9 9 9 9 9 9 $ $ n n ^ / X.w.w.g.S $ $ $ $ $ $ $ $ y -.g.g.` $ $ 9 9 9 9 9 9 ",
"6 6 6 6 9 9 9 9 9 9 9 $ $ n h ~ D P P +.4. . .E E I  .3.3.e.-.x x $ $ 9 9 9 9 9 9 9 ",
"6 9 9 9 9 9 9 9 9 9 9 9 $ $ ~ ~ A V V B P ) ) 2.2.<.0.1.1.e.d x $ $ 9 9 9 9 9 9 9 9 ",
"0 0 9 9 9 9 9 9 9 5 0 5 5 $ $ ~ A V V B P ) ) 2.2.<.0.1.1.J d $ $ 9 9 9 9 5 5 0 5 5 ",
"0 0 9 9 5 5 5 5 5 5 0 0 5 5 $ $ $ $ $ $ $ $ $ o > > > > $ $ $ 9 9 5 5 9 5 5 5 0 0 5 ",
"9 5 5 5 0 0 5 0 0 0 0 0 0 0 0 0 * * * o 0 0 0 o > > = 2 $ 9 5 5 5 0 0 5 0 0 0 0 0 0 ",
"0 5 0 0 0 0 0 0 0 0 0 6 6 0 # # ; ; ; , 6 0 o o = = = 2 o 0 5 0 0 0 0 0 0 0 0 0 6 6 ",
"0 0 0 9 9 9 0 9 9 6 6 6 6 # - , : , , , 6 o = = 3 3 2 2 o 0 0 9 9 9 9 0 9 6 6 6 6 6 ",
"9 0 9 9 9 9 9 9 9 6 6 6 6 O : : : , , , 6 o 3 3 3 3 3 3 o 9 0 9 9 9 9 9 9 6 6 6 6 6 ",
"9 9 9 9 9 9 6 6 6 9 9 6 9 O + X @ @ @ @ 9 o o o o o o o o 9 9 9 9 9 9 6 6 9 9 9 6 9 "
};
